src/scalable/mimetypes/application-x-jar.svg

<?xml version="1.0" encoding="UTF-8" standalone="no"?>
<svg
   xmlns:dc="http://purl.org/dc/elements/1.1/"
   xmlns:cc="http://creativecommons.org/ns#"
   xmlns:rdf="http://www.w3.org/1999/02/22-rdf-syntax-ns#"
   xmlns:svg="http://www.w3.org/2000/svg"
   xmlns="http://www.w3.org/2000/svg"
   xmlns:xlink="http://www.w3.org/1999/xlink"
   xmlns:sodipodi="http://sodipodi.sourceforge.net/DTD/sodipodi-0.dtd"
   xmlns:inkscape="http://www.inkscape.org/namespaces/inkscape"
   width="48px"
   height="48px"
   viewBox="0 0 48 48"
   version="1.1"
   id="svg39"
   sodipodi:docname="application-x-jar.svg"
   inkscape:version="0.92.2 2405546, 2018-03-11">
  <metadata
     id="metadata43">
    <rdf:RDF>
      <cc:Work
         rdf:about="">
        <dc:format>image/svg+xml</dc:format>
        <dc:type
           rdf:resource="http://purl.org/dc/dcmitype/StillImage" />
      </cc:Work>
    </rdf:RDF>
  </metadata>
  <sodipodi:namedview
     pagecolor="#ffffff"
     bordercolor="#666666"
     borderopacity="1"
     objecttolerance="10"
     gridtolerance="10"
     guidetolerance="10"
     inkscape:pageopacity="0"
     inkscape:pageshadow="2"
     inkscape:window-width="1920"
     inkscape:window-height="1051"
     id="namedview41"
     showgrid="false"
     inkscape:zoom="4.9166667"
     inkscape:cx="24"
     inkscape:cy="24"
     inkscape:window-x="0"
     inkscape:window-y="29"
     inkscape:window-maximized="1"
     inkscape:current-layer="svg39" />
  <!-- Generator: Sketch 41.2 (35397) - http://www.bohemiancoding.com/sketch -->
  <title
     id="title2">application-x-jar</title>
  <desc
     id="desc4">Created with Sketch.</desc>
  <g
     id="g829">
    <rect
       rx="2"
       ry="1.9047618"
       y="4"
       x="6"
       height="40"
       width="36"
       id="rect834"
       style="opacity:1;fill:#e64a19;fill-opacity:1;stroke:none;stroke-width:0.92582005;stroke-linecap:round;stroke-linejoin:round;stroke-miterlimit:4;stroke-dasharray:none;stroke-opacity:0.05882353;paint-order:markers stroke fill" />
    <path
       inkscape:connector-curvature="0"
       id="rect866"
       d="M 42,17.242188 A 40,40 0 0 1 23.494141,44 H 40 c 1.108,0 2,-0.849059 2,-1.904297 z"
       style="opacity:0.15;fill:url(#linearGradient877);fill-opacity:1;stroke:none;stroke-width:0.92582005;stroke-linecap:round;stroke-linejoin:round;stroke-miterlimit:4;stroke-dasharray:none;stroke-opacity:0.05882353;paint-order:markers stroke fill" />
  </g>
  <defs
     id="defs11">
    <linearGradient
       inkscape:collect="always"
       xlink:href="#linearGradient875"
       id="linearGradient877"
       x1="32.74707"
       y1="44"
       x2="32.74707"
       y2="17.242188"
       gradientUnits="userSpaceOnUse" />
    <linearGradient
       inkscape:collect="always"
       id="linearGradient875">
      <stop
         style="stop-color:#000000;stop-opacity:1;"
         offset="0"
         id="stop871" />
      <stop
         style="stop-color:#000000;stop-opacity:0;"
         offset="1"
         id="stop873" />
    </linearGradient>
  </defs>
  <g
     id="Page-1"
     stroke="none"
     stroke-width="1"
     fill="none"
     fill-rule="evenodd">
    <g
       id="application-x-jar">
      <polygon
         id="Rectangle-327"
         fill="#FFFFFF"
         points="12 10 14.6666667 10 16 11 14.6666667 12 12 12" />
      <polygon
         id="polygon15"
         fill="#FFFFFF"
         transform="translate(16.000000, 13.000000) scale(-1, 1) translate(-16.000000, -13.000000) "
         points="14 12 16.6666667 12 18 13 16.6666667 14 14 14" />
      <polygon
         id="polygon17"
         fill="#FFFFFF"
         transform="translate(16.000000, 17.000000) scale(-1, 1) translate(-16.000000, -17.000000) "
         points="14 16 16.6666667 16 18 17 16.6666667 18 14 18" />
      <polygon
         id="polygon19"
         fill="#FFFFFF"
         points="12 14 14.6666667 14 16 15 14.6666667 16 12 16" />
      <polygon
         id="polygon21"
         fill="#FFFFFF"
         transform="translate(16.000000, 21.000000) scale(-1, 1) translate(-16.000000, -21.000000) "
         points="14 20 16.6666667 20 18 21 16.6666667 22 14 22" />
      <polygon
         id="polygon23"
         fill="#FFFFFF"
         points="12 18 14.6666667 18 16 19 14.6666667 20 12 20" />
      <polygon
         id="polygon25"
         fill="#FFFFFF"
         transform="translate(16.000000, 25.000000) scale(-1, 1) translate(-16.000000, -25.000000) "
         points="14 24 16.6666667 24 18 25 16.6666667 26 14 26" />
      <polygon
         id="polygon27"
         fill="#FFFFFF"
         points="12 22 14.6666667 22 16 23 14.6666667 24 12 24" />
      <polygon
         id="polygon29"
         fill="#FFFFFF"
         transform="translate(16.000000, 29.000000) scale(-1, 1) translate(-16.000000, -29.000000) "
         points="14 28 16.6666667 28 18 29 16.6666667 30 14 30" />
      <polygon
         id="polygon31"
         fill="#FFFFFF"
         points="12 26 14.6666667 26 16 27 14.6666667 28 12 28" />
      <path
         d="M15,37 C18,37 16,34.3807119 16,33 C16,31.6192881 16,31 15,31 C14,31 14,31.6192881 14,33 C14,34.3807119 12.0000001,37 15,37 Z M15,36.3652344 C15.5522847,36.3652344 16,35.9175191 16,35.3652344 C16,34.8129496 15.5522847,34.3652344 15,34.3652344 C14.4477153,34.3652344 14,34.8129496 14,35.3652344 C14,35.9175191 14.4477153,36.3652344 15,36.3652344 Z"
         id="Combined-Shape"
         fill="#FFFFFF" />
      <path
         d="M30.3157894,24.7894737 C32.7400647,22.3019152 30.9473684,21 30.9473684,21 C30.9473684,21 31.2631579,22.2631579 30.9473684,22.8947368 C30.6315789,23.5263158 29.3684211,24.4736842 28.4210526,25.1052632 C27.4736842,25.7368421 26.8421052,27.3157895 29.6842105,29.2105263 C29.6842105,29.2105263 28.7368421,27.9473684 28.7368421,27 C28.7368421,26.0526316 30.2907378,24.8151793 30.3157894,24.7894737 Z M33.1578947,24.1578947 C33.1578947,24.1578947 30.9473684,24.4736842 30,25.7368421 C29.0526316,27 30,27.6315789 30.3157895,28.2631579 C30.631579,28.8947368 30.3157894,29.8421053 30.3157894,29.8421053 C30.3157894,29.8421053 32.2105262,28.2631579 30.9473684,27.3157895 C29.6842105,26.3684211 33.1578947,24.1578947 33.1578947,24.1578947 Z M28.1052632,29.2105263 C28.1052632,29.2105263 25.2631579,29.5263158 25.2631579,30.1578947 C25.2631579,30.7894737 29.0526321,31.7368421 32.8421053,29.8421053 C32.8421054,29.8421053 29.0526315,30.4736842 27.1578947,30.1578947 C25.2631579,29.8421053 28.1052632,29.2105263 28.1052632,29.2105263 Z M26.9715278,33.6616468 C26.9715278,33.6616468 24.1294225,33.9774363 24.1294225,34.6090152 C24.1294225,35.2405942 33.1578948,36.1578947 34.7368416,34.2631579 C34.7368417,34.2631579 33.2015791,34.7688558 31.263158,34.8947368 C29.3200663,35.0209212 26.9726677,34.7670999 26.0241593,34.6090152 C24.1294225,34.2932257 26.9715278,33.6616468 26.9715278,33.6616468 Z M27.4743861,35.5320326 C27.4743861,35.5320326 26.1335562,35.215234 26.2105263,35.8421053 C26.2682463,36.3121966 30.6368,36.5237179 33.3818467,35.7258998 C34.297346,35.4598198 35.0322648,35.0814724 35.3664641,34.5630072 C35.3664641,34.5630072 34.5356529,35.1745136 32.6270215,35.5356905 C30.7137914,35.8977376 28.7501777,35.8834176 27.7894737,35.8421053 C25.8703749,35.75958 27.4743861,35.5320326 27.4743861,35.5320326 Z M30.3157896,31.4210526 C28.4210531,31.7368421 28.1616518,31.813283 27.4736842,31.7368421 C26.7857166,31.6604013 27.1578947,31.1052632 27.1578947,31.1052632 C27.1578947,31.1052632 25.8947369,31.4210526 26.5263158,32.0526316 C27.1578947,32.6842105 30.3157896,32.3684211 32.5263159,31.7368421 C32.5263159,31.7368421 32.2105262,31.1052632 30.3157896,31.4210526 Z M30.0832855,33.1540556 C28.6903563,33.3862105 28.4996556,33.4424066 27.9938912,33.3862105 C27.4881268,33.3300145 27.7617363,32.9219007 27.7617363,32.9219007 C27.7617363,32.9219007 26.8331166,33.1540556 27.2974265,33.6183654 C27.7617363,34.0826753 30.0832855,33.8505204 31.7083699,33.3862105 C31.7083699,33.3862105 31.4762148,32.9219007 30.0832855,33.1540556 Z M34.4210526,30.1578947 C34.4210526,29.2105262 33.1578947,29.5263158 33.1578947,29.5263158 C33.1578947,29.5263158 34.7368421,28.8947369 35.3684211,29.8421053 C36,30.7894737 33.7894737,32.368421 32.8421053,32.368421 C32.8421053,32.368421 34.4210526,31.1052632 34.4210526,30.1578947 Z"
         id="path35"
         fill="#FFFFFF" />
    </g>
  </g>
</svg>

<svg xmlns="http://www.w3.org/2000/svg" xmlns:xlink="http://www.w3.org/1999/xlink" width="48" height="48"><g paint-order="markers stroke fill"><rect rx="2" ry="1.905" y="4" x="6" height="40" width="36" fill="#e64a19"/><path d="M42 17.242A40 40 0 0 1 23.494 44H40c1.108 0 2-.85 2-1.904z" opacity=".15" fill="url(#a)"/></g><defs><linearGradient xlink:href="#b" id="a" x1="32.747" y1="44" x2="32.747" y2="17.242" gradientUnits="userSpaceOnUse"/><linearGradient id="b"><stop offset="0"/><stop offset="1" stop-opacity="0"/></linearGradient></defs><g fill="#FFF" fill-rule="evenodd"><path d="M12 10h2.667L16 11l-1.333 1H12zM18 12h-2.667L14 13l1.333 1H18zM18 16h-2.667L14 17l1.333 1H18zM12 14h2.667L16 15l-1.333 1H12zM18 20h-2.667L14 21l1.333 1H18zM12 18h2.667L16 19l-1.333 1H12zM18 24h-2.667L14 25l1.333 1H18zM12 22h2.667L16 23l-1.333 1H12zM18 28h-2.667L14 29l1.333 1H18zM12 26h2.667L16 27l-1.333 1H12zM15 37c3 0 1-2.62 1-4s0-2-1-2-1 .62-1 2-2 4 1 4zm0-.635a1 1 0 1 0 0-2 1 1 0 0 0 0 2zM30.316 24.79c2.424-2.488.631-3.79.631-3.79s.316 1.263 0 1.895c-.315.631-1.579 1.579-2.526 2.21-.947.632-1.579 2.21 1.263 4.106 0 0-.947-1.264-.947-2.211 0-.947 1.554-2.185 1.579-2.21zm2.842-.632s-2.21.316-3.158 1.579c-.947 1.263 0 1.895.316 2.526.316.632 0 1.58 0 1.58s1.895-1.58.631-2.527c-1.263-.948 2.21-3.158 2.21-3.158zm-5.053 5.053s-2.842.315-2.842.947c0 .631 3.79 1.579 7.58-.316 0 0-3.79.632-5.685.316-1.895-.316.947-.947.947-.947zm-1.133 4.45s-2.843.316-2.843.948c0 .632 9.029 1.549 10.608-.346 0 0-1.535.506-3.474.632-1.943.126-4.29-.128-5.239-.286-1.895-.316.948-.947.948-.947zm.502 1.871s-1.34-.317-1.263.31c.057.47 4.426.682 7.17-.116.916-.266 1.651-.645 1.985-1.163 0 0-.83.612-2.739.973-1.913.362-3.877.347-4.838.306-1.919-.082-.315-.31-.315-.31zm2.842-4.11c-1.895.315-2.154.391-2.842.315-.688-.077-.316-.632-.316-.632s-1.263.316-.632.948c.632.631 3.79.315 6-.316 0 0-.315-.632-2.21-.316zm-.233 1.732c-1.393.232-1.583.288-2.09.232-.505-.056-.231-.464-.231-.464s-.929.232-.465.696c.465.465 2.786.233 4.411-.232 0 0-.232-.464-1.625-.232zm4.338-2.996c0-.947-1.263-.632-1.263-.632s1.579-.631 2.21.316c.632.947-1.579 2.526-2.526 2.526 0 0 1.58-1.263 1.58-2.21z"/></g></svg>
